X: 152
T: Miss Lilias Cunningham's Dance
C: by John Pringle
B: John Pringle "Collection of Reels Strathspeys & Jigs", 1801 p.15#2
Z: 2011 John Chambers <jc:trillian.mit.edu>
R: reel
M: C|
L: 1/8
K: D
V: 1
|: A3F (dc).B.A | BAGF [F2A,2][E2A,2] | (DF)dc dced | ~ceAG G2F2 |
   A3F dcBA | ~B3c edcB | Adfa gefd |1 ceAc dAGF :|2 ceAc d4 ||
|: afdf bged | cdef gedc | Begf efde | cedc BAGF |
   FAdf gecA | B^ABc d=AGF | ~BABd cABG | FGEF D4 :|
V: 2 clef=bass middle=d
|: d2D2 d4 | g4 d2A2 | d4 d2c2 | A4 d4 |
   d2D2 d4 | g2G2 g4 | f4a4 |1 A4 d4 :|2 A4 d4 ||
|: d4 g2^g2 | a4 A4 | g4 g2^g2 | a2A2 d4 |
   d4 a4 | g4 d4 | g2^g2 a2=g2 | d2A2 D4 :|

%%sep 2 1 500

